X:1
T:Title
%%score { 1 | 2 }
L:1/8
M:6/8
K:G
V:1 treble nm="Grand Piano"
V:2 bass 
V:1
 z3 z2[Q:1/4=100] [B,D] | [B,G]>[B,G][B,G] [B,F]>[B,F][B,F] | [B,E]2 [CE] [B,D]2 [B,D] | %3
 G>GG [FA]2 [FA] | [GB]3- [GB]2 [=FB] | [Ec]>[Ec][Ec] [CE][EG][EA] | [DB]2 [DB] [B,D]2 [B,DG] | %7
 [A,DF][DA][B,DG] [A,DF]2[K:bass] [G,^CE] | [F,D]6 | [EFc]3 [DFB]2 A | A2 G D3 | d3 c2 B | %12
[M:7/8] [GB]2 [FA] [FA]3 D |[M:3/4] D>G GG AB |[M:7/8] [Ec]2 [Ec] [CE]3 [Ec] | %15
[M:3/4] [DB]<[Gd] [EGc] [DGB]2 [CDA] |[M:5/8] [B,DG]-[B,DG]- [B,DG]3 |] %17
V:2
 z3 z2 [G,,G,] | [G,,D,]>[G,,D,][G,,D,] [G,,D,]>[G,,D,][G,,D,] | %2
 [G,,E,]2 [G,,F,] [G,,G,]2 [G,,G,] | [E,G,B,]>[E,B,E][E,B,E] [D,D]2 [D,D] | [G,D]3- [G,D]2 [G,D] | %5
 [C,C]>[C,G,][C,G,] [C,G,][C,G,][C,G,] | [G,,G,]2 [G,,G,] [G,,G,]2 G,, | A,,[A,,F,]A,, A,,2 A,, | %8
 D,6 | D,3 D,2 [D,CD] | [G,CD]2 [G,B,D] [G,B,]3 | [B,DG]3 [A,DF]2 [G,DG] | %12
[M:7/8][K:bass] [D,D]2 [D,D] [D,D]3 [D,F,C] | %13
[M:3/4] [G,B,]>[K:treble][G,B,D] [G,B,D][G,B,D] [G,CD][G,D=F] | %14
[M:7/8][K:bass] [C,C]2 [C,G,] [C,G,]3 [C,G,] |[M:3/4] [D,G,]<[D,B,] D, D,2 D, | %16
[M:5/8] G,,-G,,- G,,3 |] %17

